X: 10501
Q: "Moderate."
M: C
L: 1/8
K: B
d2f>d c2A2 | (G>F)(GA) F2zc |
c2A2 f2zA | B2c2 d2zd |\
(dB)g2 (e2cA) | B2(A>d) HG2(3(FGE) |\
(DF) zB (Ac) zA | (Bd) zB (cf) zF |\
(Bd) zB (cHf) (=e_e) |\
(Td>c)(Td>e) c2f2 | (Td>c)(Td>e) c2zF |\
(G>A)(B>c) (d>e)f2 | d2(c>f) f3F |\
(G>A)(B>c) (d>e)Hf2 {b}| (B2{d}c)>B B2z2 |]


